Papirus/48x48/apps/yast-vpn.svg

<svg width="48" height="48" version="1" xmlns="http://www.w3.org/2000/svg">
 <path d="m24 5a9 9 0 0 0-9 9v12h18v-12a9 9 0 0 0-9-9zm0 4c2.808802 0 5 2.191198 5 5v8h-10v-8c0-2.808802 2.191198-5 5-5z" style="opacity:.2"/>
 <rect transform="rotate(90)" x="39" y="-44" width="4" height="40" rx="2" ry="2" style="opacity:.2"/>
 <rect x="22" y="32" width="4" height="8" style="fill:#828282"/>
 <path d="m24 4a9 9 0 0 0-9 9v12h18v-12a9 9 0 0 0-9-9zm0 4c2.808802 0 5 2.191198 5 5v8h-10v-8c0-2.808802 2.191198-5 5-5z" style="fill:#e4e4e4"/>
 <rect transform="matrix(0,-1,-1,0,0,0)" x="-33" y="-36" width="16" height="24" rx="1.6" ry="1.714" style="opacity:.2"/>
 <rect transform="matrix(0,-1,-1,0,0,0)" x="-32" y="-36" width="16" height="24" rx="1.6" ry="1.714" style="fill:#fecd38"/>
 <rect x="12" y="19" width="24" height="10" rx="0" ry="0" style="fill:#ffffff;opacity:.3"/>
 <rect transform="rotate(90)" x="38" y="-44" width="4" height="40" rx="2" ry="2" style="fill:#828282"/>
 <rect x="17" y="44" width="14" height="1" style="opacity:.2"/>
 <rect x="17" y="36" width="14" height="8" style="fill:#afafb1"/>
 <path d="m24 4c-4.970563 0-9 4.0294373-9 9v1c0-4.9705627 4.029437-9 9-9s9 4.0294373 9 9v-1c0-4.9705627-4.029437-9-9-9z" style="fill:#ffffff;opacity:.2"/>
 <rect x="17" y="36" width="14" height="1" style="fill:#ffffff;opacity:.2"/>
</svg>

<svg xmlns="http://www.w3.org/2000/svg" width="48" height="48" version="1">
 <rect style="fill:#828282" width="4" height="8" x="22" y="32"/>
 <path style="opacity:0.2" d="M 24,5 A 9,9 0 0 0 15,14 V 26 H 33 V 14 A 9,9 0 0 0 24,5 Z M 24,9 C 26.8,9 29,11.2 29,14 V 22 H 19 V 14 C 19,11.2 21.2,9 24,9 Z"/>
 <path style="fill:#e4e4e4" d="m24 4a9 9 0 0 0-9 9v12h18v-12a9 9 0 0 0-9-9zm0 4c2.8 0 5 2.2 5 5v8h-10v-8c0-2.8 2.2-5 5-5z"/>
 <rect style="opacity:0.2" width="24" height="16" x="12" y="17" rx="2" ry="2"/>
 <rect style="fill:#fecd38" width="24" height="16" x="12" y="16" rx="2" ry="2"/>
 <rect style="fill:#ffffff;opacity:0.3" width="24" height="10" x="12" y="19"/>
 <rect style="opacity:0.2" width="40" height="4" x="4" y="39" rx="2" ry="2"/>
 <rect style="fill:#828282" width="40" height="4" x="4" y="38" rx="2" ry="2"/>
 <rect style="opacity:0.2" width="14" height="1" x="17" y="44"/>
 <rect style="fill:#afafb1" width="14" height="8" x="17" y="36"/>
 <rect style="fill:#ffffff;opacity:0.2" width="14" height="1" x="17" y="36"/>
 <path style="fill:#ffffff;opacity:0.2" d="M 24,4 A 9,9 0 0 0 15,13 V 14 A 9,9 0 0 1 24,5 9,9 0 0 1 33,14 V 13 A 9,9 0 0 0 24,4 Z"/>
 <path style="fill:#ffffff;opacity:0.2" d="M 14 16 C 12.892 16 12 16.892 12 18 L 12 19 C 12 17.892 12.892 17 14 17 L 34 17 C 35.108 17 36 17.892 36 19 L 36 18 C 36 16.892 35.108 16 34 16 L 14 16 z"/>
</svg>
